img/donwload.svg

<svg width="24" height="24" viewBox="0 0 24 24" fill="none" xmlns="http://www.w3.org/2000/svg">
<g opacity="0.6">
<path d="M16.375 8.99758H17.25C18.2164 8.99758 19 9.7653 19 10.7123V19.2853C19 20.2323 18.2164 21 17.25 21H6.75004C5.78356 21 5 20.2323 5 19.2853V10.7123C5 9.7653 5.78356 8.99758 6.75004 8.99758H7.62498C8.10824 8.99758 8.50008 9.38135 8.50008 9.85485C8.50008 10.3283 8.10824 10.7123 7.62498 10.7123H6.75004V19.2853H17.25V10.7123H16.375C15.8918 10.7123 15.4999 10.3283 15.4999 9.85485C15.4999 9.38135 15.8918 8.99758 16.375 8.99758V8.99758ZM12.8749 5.92703V13.2843C12.8749 13.7578 12.4833 14.1416 12 14.1416C11.5167 14.1416 11.1251 13.7578 11.1251 13.2843V5.92703L10.1439 6.88835C9.80217 7.2232 9.24816 7.2232 8.90642 6.88835C8.56468 6.55351 8.56468 6.01069 8.90642 5.67601L11.3813 3.25102C11.723 2.91633 12.277 2.91633 12.6187 3.25102L15.0936 5.67601C15.4353 6.01071 15.4353 6.55352 15.0936 6.88835C14.7518 7.2232 14.1978 7.2232 13.8561 6.88835L12.8749 5.92703Z" fill="#222222"/>
</g>
</svg>

<svg width="24" height="24" viewBox="0 0 24 24" fill="none" xmlns="http://www.w3.org/2000/svg"><path d="M16.375 8.998h.875c.966 0 1.75.767 1.75 1.714v8.573c0 .947-.784 1.715-1.75 1.715H6.75C5.784 21 5 20.232 5 19.285v-8.573c0-.947.784-1.714 1.75-1.714h.875c.483 0 .875.383.875.857a.867.867 0 0 1-.875.857H6.75v8.573h10.5v-8.573h-.875a.867.867 0 0 1-.875-.857c0-.474.392-.857.875-.857zm-3.5-3.071v7.357a.866.866 0 0 1-.875.858.866.866 0 0 1-.875-.858V5.927l-.981.961a.888.888 0 0 1-1.238 0 .845.845 0 0 1 0-1.212l2.475-2.425a.888.888 0 0 1 1.238 0l2.475 2.425a.845.845 0 0 1 0 1.212.888.888 0 0 1-1.238 0l-.981-.961z" fill="#222" opacity=".6"/></svg>
